SVG/ico__info--alt.svg

<svg xmlns="http://www.w3.org/2000/svg" viewBox="0 0 240 240">
  <path d="M120,30c-49.71,0-90,40.29-90,90s40.29,90,90,90,90-40.29,90-90S169.71,30,120,30ZM130,170h-20v-60h20v60ZM120,90c-5.52,0-10-4.48-10-10s4.48-10,10-10,10,4.48,10,10-4.48,10-10,10Z"/>
</svg>

<svg width="240" height="240" viewBox="0 0 240 240" fill="none" xmlns="http://www.w3.org/2000/svg">
<path d="M120 30C70.29 30 30 70.29 30 120C30 169.71 70.29 210 120 210C169.71 210 210 169.71 210 120C210 70.29 169.71 30 120 30ZM130 170H110V110H130V170ZM120 90C114.48 90 110 85.52 110 80C110 74.48 114.48 70 120 70C125.52 70 130 74.48 130 80C130 85.52 125.52 90 120 90Z" fill="black"/>
</svg>
